X:1
T:Title
%%score ( 1 2 ) { 3 | ( 4 5 ) }
L:1/8
Q:1/4=105
M:4/4
K:F
V:1 treble nm="Grand Piano, Soprano"
V:2 treble 
V:3 bass nm="Choir Pad, Litlington Tower, Barnby"
V:4 bass 
V:5 bass 
V:1
 z4 d2 z2 | F2 z2 z4 | [FB]2 [FA]2 [EG]2 F2 | c-[Ec]c-[Ac] =B-[FB] [Ec]2 | %4
 [Fc]2 [Fd]2 [Fc]2 [DB]2 | [DA]2 [DB]2 [Cc]2 [CA]2 | z2 A2 z4 | z2 F2 z4 | z8 |] %9
V:2
 [CF]2 [CA]2 DE [Fc]2 | A,B, [CF]2 [EG]2 F2 | x8 | .F2 .D2 .G2 z2 | x8 | x8 | %6
 [B,B]2 CD [_EG]2 [EF]2 | [DF]2 CD [EG]2 F2- | F6 z2 |] %9
V:3
 A,2 F,2 F,G, A,2 | A,G, A,2 B,2 A,2 | B,2[K:treble] C2 C2 C2 | C2 D2 ED C2 | %4
 C2[K:bass] B,2 A,2 G,2 | ^F,2 G,=F, G,2 F,2 | F,2 F,2 G,2 C2- | C2 A,2 B,2 A,2- | A,6 z2 |] %9
V:4
 F,2 z2 B,,2 A,,2 | D,2 C,2 C,2 D,2 | D,2 C,2 B,2 A,2 | A,G, F,2 G,2 C,2 | A,2 z2 F,2 z2 | %5
 D,2 z2 E,2 z2 | D,2 C,2 B,,2 A,,2 | z B, C,2 C,2 F,2- | F,6 z2 |] %9
V:5
 x8 | x8 | x8 | x8 | x8 | x8 | x8 | B,,2 z2 z4 | x8 |] %9

